**kern	**silbe	**harmony	**phrase	**leadinstrument	**rhyme	**harte
*ICvox	*	*M7/4	*	*	*	*M7/4
*VRlead	*	*	*	*	*	*
*Hstimme	*	*	*	*	*	*
*b:	*	*b:	*b:	*b:	*	*b:
*M7/4	*	*	*	*	*	*
*clefC3	*	*	*	*	*	*
r;	.	1r;	.	r	.	N.C.
r;	.	1r;	.	r	.	N.C.
=1	=1	=1	=1	=1	=1	=1
*>Letter>A	*>Letter>A	*>Letter>A	*>Letter>A	*>Letter>A	*>Letter>A	*>Letter>A
*>Label>Intro	*>Label>Intro	*>Label>Intro	*>Label>Intro	*>Label>Intro	*>Label>Intro	*>Label>Intro
1..r	.	1..Bm	newline	r	.	B:min
=2	=2	=2	=2	=2	=2	=2
1..r	.	1..Bm	.	r	.	B:min
=3	=3	=3	=3	=3	=3	=3
1..r	.	1..Bm	.	r	.	B:min
=4	=4	=4	=4	=4	=4	=4
1..r	.	1..Bm	.	r	.	B:min
=5	=5	=5	=5	=5	=5	=5
*>Letter>B	*>Letter>B	*>Letter>B	*>Letter>B	*>Letter>B	*>Letter>B	*>Letter>B
*>Label>Verse	*>Label>Verse	*>Label>Verse	*>Label>Verse	*>Label>Verse	*>Label>Verse	*>Label>Verse
8f#	Mo-	1..Bm	newline	voice	.	B:min
8f#	-ney,	.	.	.	a	.
1r	.	.	.	.	.	.
8r	.	.	.	.	.	.
8F#	a	.	.	.	.	.
8d	get-	.	.	.	.	.
8d	-a-	.	.	.	.	.
=6	=6	=6	=6	=6	=6	=6
4A	-way.	1..Bm	.	voice	B	B:min
1r	.	.	.	.	.	.
8r	.	.	.	.	.	.
8F#	Go	.	.	.	.	.
8d	get	.	.	.	.	.
8d	a	.	.	.	.	.
=7	=7	=7	=7	=7	=7	=7
4B	good	1..Bm	.	voice	.	B:min
4d	job	.	.	.	.	.
4B	with	.	.	.	.	.
4F#	more	.	.	.	.	.
8A	pay	.	.	.	B	.
8A	and	.	.	.	.	.
4B	you're	.	.	.	.	.
4e	o	.	.	.	.	.
=8	=8	=8	=8	=8	=8	=8
12d	_	1..Bm	.	voice	.	B:min
6B	_	.	.	.	.	.
4A	kay.	.	.	.	B	.
1r	.	.	.	.	.	.
8r	.	.	.	.	.	.
[8f#	Mo-	.	.	.	.	.
=9	=9	=9	=9	=9	=9	=9
16f#]	_	1..Bm	newline	voice	.	B:min
[8.e	-ney,	.	.	.	a	.
8e]	_	.	.	.	.	.
16d	_	.	.	.	.	.
16B	_	.	.	.	.	.
1r	.	.	.	.	.	.
8d	it's	.	.	.	.	.
8d	a	.	.	.	.	.
=10	=10	=10	=10	=10	=10	=10
4.A	gas.	1..Bm	.	voice	C	B:min
1r	.	.	.	.	.	.
8r	.	.	.	.	.	.
4d	Grab	.	.	.	C	.
=11	=11	=11	=11	=11	=11	=11
4B	that	1..Bm	.	voice	.	B:min
4d	cash	.	.	.	C	.
4B	with	.	.	.	.	.
4F#	both	.	.	.	.	.
4A	hands	.	.	.	.	.
4B	and	.	.	.	.	.
[4e	make	.	.	.	.	.
=12	=12	=12	=12	=12	=12	=12
16e]	_	1..Bm	.	voice	.	B:min
16d	_	.	.	.	.	.
[8A	a	.	.	.	.	.
4A]	stash.	.	.	.	C	.
1r	.	.	.	.	.	.
8r	.	.	.	.	.	.
8c#	A	.	.	.	.	.
=13	=13	=13	=13	=13	=13	=13
*M4/4	*	*M4/4	*M4/4	*M4/4	*	*M4/4
4f#	New	1F#m	newline	voice	.	F#:min
4f#	car,	.	.	.	D	.
8f#	ca-	.	.	.	.	.
8c#	-vi-	.	.	.	.	.
4F#	-ar,	.	.	.	D	.
=14	=14	=14	=14	=14	=14	=14
4A	four-	1F#m	.	voice	.	F#:min
4c#	-star	.	.	.	D	.
4f#	day-	.	.	.	.	.
4f	-dream,	.	.	.	A	.
=15	=15	=15	=15	=15	=15	=15
*M6/4	*	*M6/4	*M6/4	*M6/4	*	*M6/4
8e	think	1.Em	.	voice	.	E:min
8B	I'll	.	.	.	.	.
4E	buy	.	.	.	.	.
4G	me	.	.	.	A	.
4A	a	.	.	.	.	.
4B	foot-	.	.	.	.	.
4e	-ball	.	.	.	.	.
=16	=16	=16	=16	=16	=16	=16
*M7/4	*	*M7/4	*M7/4	*M7/4	*	*M7/4
16e	_	1..Bm	.	voice	.	B:min
16d	_	.	.	.	.	.
[8B	_	.	.	.	.	.
16B]	_	.	.	.	.	.
8.A	team.	.	.	.	A	.
1r	.	.	.	.	.	.
4r	.	.	.	.	.	.
=17	=17	=17	=17	=17	=17	=17
1..r	.	1..Bm	.	r	.	B:min
=18	=18	=18	=18	=18	=18	=18
*>Letter>B	*>Letter>B	*>Letter>B	*>Letter>B	*>Letter>B	*>Letter>B	*>Letter>B
*>Label>Verse	*>Label>Verse	*>Label>Verse	*>Label>Verse	*>Label>Verse	*>Label>Verse	*>Label>Verse
8f#	Mo-	1..Bm	newline	voice	.	B:min
8f#	-ney,	.	.	.	A	.
1r	.	.	.	.	.	.
8r	.	.	.	.	.	.
8F#	we'll	.	.	.	.	.
4d	get	.	.	.	.	.
=19	=19	=19	=19	=19	=19	=19
4A	back.	1..Bm	.	voice	C	B:min
1r	.	.	.	.	.	.
4r	.	.	.	.	.	.
4d	I'm	.	.	.	.	.
=20	=20	=20	=20	=20	=20	=20
4B	all	1..Bm	.	voice	.	B:min
4d	right,	.	.	.	.	.
4B	Jack,	.	.	.	C	.
8F#	keep	.	.	.	.	.
8F#	your	.	.	.	.	.
4A	hands	.	.	.	.	.
4B	off	.	.	.	.	.
4e	my	.	.	.	.	.
=21	=21	=21	=21	=21	=21	=21
12d	_	1..Bm	.	voice	.	B:min
6B	_	.	.	.	.	.
4A	stack.	.	.	.	C	.
1r	.	.	.	.	.	.
4r	.	.	.	.	.	.
=22	=22	=22	=22	=22	=22	=22
8f#	Mo-	1..Bm	newline	voice	.	B:min
[8f#	-ney,	.	.	.	A	.
12f#]	_	.	.	.	.	.
6f#	_	.	.	.	.	.
4f#	_	.	.	.	.	.
2r	.	.	.	.	.	.
4r	.	.	.	.	.	.
8d	it's	.	.	.	.	.
8d	a	.	.	.	.	.
=23	=23	=23	=23	=23	=23	=23
4A	hit.	1..Bm	.	voice	E	B:min
1r	.	.	.	.	.	.
8r	.	.	.	.	.	.
8A	A'	.	.	.	.	.
4d	don't	.	.	.	.	.
=24	=24	=24	=24	=24	=24	=24
4B	give	1..Bm	.	voice	E	B:min
4d	me	.	.	.	A	.
4B	that	.	.	.	.	.
4F#	do-	.	.	.	.	.
8A	-goo-	.	.	.	(F	.
8A	-dy-	.	.	.	a)	.
4B	-good	.	.	.	F	.
[4e	bull-	.	.	.	F	.
=25	=25	=25	=25	=25	=25	=25
16e]	_	1..Bm	.	voice	.	B:min
8d	_	.	.	.	.	.
[16A	-shit.	.	.	.	E	.
4A]	_	.	.	.	.	.
2r	.	.	.	.	.	.
4A	I'm	.	.	.	.	.
4B	in	.	.	.	.	.
4d	the	.	.	.	.	.
=26	=26	=26	=26	=26	=26	=26
*M4/4	*	*M4/4	*M4/4	*M4/4	*	*M4/4
4f#	hi-	1F#m	newline	voice	F	F#:min
4f#	-fi-	.	.	.	f	.
8f#	-de-	.	.	.	.	.
8c#	-li-	.	.	.	.	.
4F#	-ty	.	.	.	A	.
=27	=27	=27	=27	=27	=27	=27
4A	first	1F#m	.	voice	.	F#:min
4c#	class	.	.	.	.	.
8f#	tra-	.	.	.	.	.
8f#	-vel-	.	.	.	.	.
4f	-ing	.	.	.	A	.
=28	=28	=28	=28	=28	=28	=28
*M6/4	*	*M6/4	*M6/4	*M6/4	*	*M6/4
8e	set	1.Em	.	voice	G	E:min
8B	and	.	.	.	.	.
4E	I	.	.	.	.	.
4G	think	.	.	.	A	.
4A	I	.	.	.	.	.
8B	need	.	.	.	A	.
8B	a	.	.	.	.	.
[4e	Lear	.	.	.	A	.
=29	=29	=29	=29	=29	=29	=29
*M7/4	*	*M7/4	*M7/4	*M7/4	*	*M7/4
16e]	_	1..Bm	.	voice	.	B:min
16d	_	.	.	.	.	.
[8B	_	.	.	.	.	.
16B]	_	.	.	.	.	.
8.A	jet.	.	.	.	G	.
1r	.	.	.	.	.	.
4r	.	.	.	.	.	.
=30	=30	=30	=30	=30	=30	=30
1..r	.	1..Bm	.	r	.	B:min
=31	=31	=31	=31	=31	=31	=31
*>Letter>C	*>Letter>C	*>Letter>C	*>Letter>C	*>Letter>C	*>Letter>C	*>Letter>C
*>Label>Solo	*>Label>Solo	*>Label>Solo	*>Label>Solo	*>Label>Solo	*>Label>Solo	*>Label>Solo
1..r	.	1..Bm	newline	saxophone	.	B:min
=32	=32	=32	=32	=32	=32	=32
1..r	.	1..Bm	.	saxophone	.	B:min
=33	=33	=33	=33	=33	=33	=33
1..r	.	1..Bm	.	saxophone	.	B:min
=34	=34	=34	=34	=34	=34	=34
*M4/4	*	*M4/4	*M4/4	*M4/4	*	*M4/4
1r	.	1Bm	.	saxophone	.	B:min
=35	=35	=35	=35	=35	=35	=35
1r	.	1Bm	newline	saxophone	.	B:min
=36	=36	=36	=36	=36	=36	=36
*M7/4	*	*M7/4	*M7/4	*M7/4	*	*M7/4
1..r	.	1..Bm	.	saxophone	.	B:min
=37	=37	=37	=37	=37	=37	=37
1..r	.	1..Bm	.	saxophone	.	B:min
=38	=38	=38	=38	=38	=38	=38
1..r	.	1..Bm	.	saxophone	.	B:min
=39	=39	=39	=39	=39	=39	=39
1..r	.	1..Bm	.	saxophone	.	B:min
=40	=40	=40	=40	=40	=40	=40
*M4/4	*	*M4/4	*M4/4	*M4/4	*	*M4/4
1r	.	1F#m	newline	saxophone	.	F#:min
=41	=41	=41	=41	=41	=41	=41
1r	.	1F#m	.	saxophone	.	F#:min
=42	=42	=42	=42	=42	=42	=42
*M6/4	*	*M6/4	*M6/4	*M6/4	*	*M6/4
1.r	.	1.Em	.	saxophone	.	E:min
=43	=43	=43	=43	=43	=43	=43
*M4/4	*	*M4/4	*M4/4	*M4/4	*	*M4/4
1r	.	1Bm	.	saxophone	.	B:min
=44	=44	=44	=44	=44	=44	=44
1r	.	1Bm	.	saxophone	.	B:min
=45	=45	=45	=45	=45	=45	=45
*>Letter>C	*>Letter>C	*>Letter>C	*>Letter>C	*>Letter>C	*>Letter>C	*>Letter>C
*>Label>Solo	*>Label>Solo	*>Label>Solo	*>Label>Solo	*>Label>Solo	*>Label>Solo	*>Label>Solo
1r	.	1Bm	newline	guitar	.	B:min
=46	=46	=46	=46	=46	=46	=46
1r	.	1Bm	.	guitar	.	B:min
=47	=47	=47	=47	=47	=47	=47
1r	.	1Bm	.	guitar	.	B:min
=48	=48	=48	=48	=48	=48	=48
1r	.	1Bm	.	guitar	.	B:min
=49	=49	=49	=49	=49	=49	=49
1r	.	1Bm	newline	guitar	.	B:min
=50	=50	=50	=50	=50	=50	=50
1r	.	1Bm	.	guitar	.	B:min
=51	=51	=51	=51	=51	=51	=51
1r	.	1Bm	.	guitar	.	B:min
=52	=52	=52	=52	=52	=52	=52
1r	.	1Bm	.	guitar	.	B:min
=53	=53	=53	=53	=53	=53	=53
1r	.	1Em	newline	guitar	.	E:min
=54	=54	=54	=54	=54	=54	=54
1r	.	1Em	.	guitar	.	E:min
=55	=55	=55	=55	=55	=55	=55
1r	.	1Em	.	guitar	.	E:min
=56	=56	=56	=56	=56	=56	=56
1r	.	1Em	.	guitar	.	E:min
=57	=57	=57	=57	=57	=57	=57
1r	.	1Bm	newline	guitar	.	B:min
=58	=58	=58	=58	=58	=58	=58
1r	.	1Bm	.	guitar	.	B:min
=59	=59	=59	=59	=59	=59	=59
1r	.	1Bm	.	guitar	.	B:min
=60	=60	=60	=60	=60	=60	=60
1r	.	1Bm	.	guitar	.	B:min
=61	=61	=61	=61	=61	=61	=61
1r	.	1F#m	newline	guitar	.	F#:min
=62	=62	=62	=62	=62	=62	=62
1r	.	1F#m	.	guitar	.	F#:min
=63	=63	=63	=63	=63	=63	=63
1r	.	4Bm	.	guitar	.	B:1
.	.	4AM	.	guitar	.	A:1
.	.	4GM	.	guitar	.	G:1
.	.	4F#m	.	guitar	.	F#:1
=64	=64	=64	=64	=64	=64	=64
1r	.	4Em	.	guitar	.	E:1
.	.	4DM	.	guitar	.	D:1
.	.	4C#m	.	guitar	.	C#:1
.	.	4CM	.	guitar	.	C:1
=65	=65	=65	=65	=65	=65	=65
*M7/4	*	*M7/4	*M7/4	*M7/4	*	*M7/4
1..r	.	1..Bm	newline	guitar	.	B:min
=66	=66	=66	=66	=66	=66	=66
1..r	.	1..Bm	.	guitar	.	B:min
=67	=67	=67	=67	=67	=67	=67
*>Letter>B	*>Letter>B	*>Letter>B	*>Letter>B	*>Letter>B	*>Letter>B	*>Letter>B
*>Label>Verse	*>Label>Verse	*>Label>Verse	*>Label>Verse	*>Label>Verse	*>Label>Verse	*>Label>Verse
8f#	Mo-	1..Bm	newline	voice	.	B:min
[8f#	-ney,	.	.	.	a	.
12f#]	_	.	.	.	.	.
6f#	_	.	.	.	.	.
4r	.	.	.	.	.	.
2r	.	.	.	.	.	.
4r	.	.	.	.	.	.
8e	it's	.	.	.	.	.
8d	a	.	.	.	.	.
=68	=68	=68	=68	=68	=68	=68
4A	crime.	1..Bm	.	voice	F	B:min
1r	.	.	.	.	.	.
4r	.	.	.	.	.	.
4d	Share	.	.	.	H	.
=69	=69	=69	=69	=69	=69	=69
4B	it,	1..Bm	.	voice	.	B:min
4d	fair-	.	.	.	(H	.
8B	-ly	.	.	.	a)	.
8F#	but	.	.	.	.	.
4F#	don't	.	.	.	.	.
8A	take	.	.	.	.	.
8A	a	.	.	.	.	.
8B	slice	.	.	.	F	.
8B	of	.	.	.	.	.
4e	my	.	.	.	F	.
=70	=70	=70	=70	=70	=70	=70
12d	_	1..Bm	.	voice	.	B:min
6B	_	.	.	.	.	.
4A	pie.	.	.	.	F	.
1r	.	.	.	.	.	.
4r	.	.	.	.	.	.
=71	=71	=71	=71	=71	=71	=71
8f#	Mo-	1..Bm	newline	voice	.	B:min
[8f#	-ney,	.	.	.	a	.
12f#]	_	.	.	.	.	.
6f#	_	.	.	.	.	.
4r	.	.	.	.	.	.
2r	.	.	.	.	.	.
8r	.	.	.	.	.	.
[8e	so	.	.	.	.	.
8e]	they	.	.	.	B	.
8d	_	.	.	.	.	.
=72	=72	=72	=72	=72	=72	=72
4.A	say,	1..Bm	.	voice	B	B:min
8r	.	.	.	.	.	.
1r	.	.	.	.	.	.
4d	is	.	.	.	.	.
=73	=73	=73	=73	=73	=73	=73
4B	the	1..Bm	.	voice	.	B:min
4d	root	.	.	.	.	.
4B	of	.	.	.	.	.
4F#	all	.	.	.	.	.
4A	e-	.	.	.	.	.
4B	-vil	.	.	.	.	.
4e	to	.	.	.	.	.
=74	=74	=74	=74	=74	=74	=74
12d	_	1..Bm	.	voice	.	B:min
6B	_	.	.	.	.	.
4A	day.	.	.	.	B	.
4r	.	.	.	.	.	.
1r	.	.	.	.	.	.
=75	=75	=75	=75	=75	=75	=75
*M4/4	*	*M4/4	*M4/4	*M4/4	*	*M4/4
8f#	But	1F#m	newline	voice	.	F#:min
8e	if	.	.	.	.	.
4f#	you	.	.	.	.	.
8f#	ask	.	.	.	.	.
8c#	for	.	.	.	.	.
4F#	a	.	.	.	.	.
=76	=76	=76	=76	=76	=76	=76
4A	raise	1F#m	.	voice	F	F#:min
4c#	it's	.	.	.	.	.
4f#	no	.	.	.	.	.
4f	sur-	.	.	.	.	.
=77	=77	=77	=77	=77	=77	=77
*M6/4	*	*M6/4	*M6/4	*M6/4	*	*M6/4
8e	-prise	1.Em	.	voice	F	E:min
8B	that	.	.	.	.	.
4E	they're	.	.	.	.	.
4G	gi-	.	.	.	.	.
8A	-ving	.	.	.	.	.
8r	.	.	.	.	.	.
4B	none	.	.	.	.	.
8e	a-	.	.	.	.	.
[8A	-way	.	.	.	B	.
=78	=78	=78	=78	=78	=78	=78
*>Letter>D	*>Letter>D	*>Letter>D	*>Letter>D	*>Letter>D	*>Letter>D	*>Letter>D
*>Label>Outro	*>Label>Outro	*>Label>Outro	*>Label>Outro	*>Label>Outro	*>Label>Outro	*>Label>Outro
*	*	*M4/4	*M4/4	*M4/4	*	*M4/4
4A]	.	1Bm	newline	voice	.	B:min
4r	.	.	.	.	.	.
4r	.	.	.	.	.	.
8d	a-	.	.	.	.	.
[8A	-way	.	.	.	B	.
=79	=79	=79	=79	=79	=79	=79
4A]	.	1Bm	.	voice	.	B:min
4r	.	.	.	.	.	.
4r	.	.	.	.	.	.
8d	a-	.	.	.	.	.
[8B	-way	.	.	.	B	.
=80	=80	=80	=80	=80	=80	=80
16B]	_	1Bm	.	voice	.	B:min
16d	_	.	.	.	.	.
[8B	_	.	.	.	.	.
4B]	.	.	.	.	.	.
4r	.	.	.	.	.	.
8F#	a-	.	.	.	.	.
[8e	-way	.	.	.	B	.
=81	=81	=81	=81	=81	=81	=81
8e]	_	1Bm	.	voice	.	B:min
8d	_	.	.	.	.	.
8B	_	.	.	.	.	.
8A	.	.	.	.	.	.
4r	.	.	.	.	.	.
8d	a-	.	.	.	.	.
[8B	-way	.	.	.	B	.
=82	=82	=82	=82	=82	=82	=82
16B]	_	1Bm	newline	fadeout voice	.	B:min
16d	_	.	.	.	.	.
16B	_	.	.	.	.	.
16A	.	.	.	.	.	.
4r	.	.	.	.	.	.
4r	.	.	.	.	.	.
8d	a-	.	.	.	.	.
[8B	-way	.	.	.	B	.
=83	=83	=83	=83	=83	=83	=83
4B]	.	1Bm	.	fadeout voice	.	B:min
4r	.	.	.	.	.	.
4r	.	.	.	.	.	.
8F#	a-	.	.	.	.	.
[8e	-way	.	.	.	B	.
=84	=84	=84	=84	=84	=84	=84
8e]	_	1Bm	.	fadeout voice	.	B:min
8d	_	.	.	.	.	.
8B	_	.	.	.	.	.
8A	.	.	.	.	.	.
4r	.	.	.	.	.	.
8r	.	.	.	.	.	.
8A	a-	.	.	.	.	.
=85	=85	=85	=85	=85	=85	=85
4A	-way	1Bm	.	fadeout voice	B	B:min
4B	.	.	.	.	.	.
4r	.	.	.	.	.	.
8r	.	.	.	.	.	.
[8a	oo-	.	.	.	.	.
=86	=86	=86	=86	=86	=86	=86
8a]	_	1Bm	.	fadeout voice	.	B:min
8f#	-o-	.	.	.	.	.
8e	-o-	.	.	.	.	.
8d	-o-	.	.	.	.	.
4B	-ooh...	.	.	.	.	.
4r	.	.	.	.	.	.
=87	=87	=87	=87	=87	=87	=87
1r	.	1Bm	.	fadeout voice	.	B:min
=88	=88	=88	=88	=88	=88	=88
1r	.	1Bm	.	fadeout voice	.	B:min
r;	.	1r;	.	r	.	N.C.
*-	*-	*-	*-	*-	*-	*-
!!!BillboardChartDate: 1973/07/28
!!!BillboardPeak: 13
!!!BillboardWeeksOnChart: 15
!!!COC: Pink Floyd
!!!ENC: Nathaniel Condit-Schultz
!!!EST: Awating manual error checking and editing.
!!!OTL: Money
!!!RDF**chordsym: original McGill chord annotation + (implied pitch class set, with bass pitch in first position)
!!!RDF**harmony: **recip + pitch class of root + harmonic quality
!!!RDF**leadinstrument: original McGill primary instrumentation annotation
!!!RDF**phrase: newline = linebreak in original McGill transcription
!!!RDF**timestamp: McGill audio timestamp in seconds
!!!RDT: 2017/01/12/
!!!SampleActualRank: 13
!!!SampleID#: 0269
!!!SampleTargetRank: 12
